X:19
T:Braes of Lochiel, The
O:scotland
T:Braigh Loch Iall
O:scotland
S:Alasdair Fraser record
R:Slow air
M:6/8
B:CM
K:Hp
e|\
A>GB A2A|a>ge d<eg|Geg edB|\
B<AG A2A|a>ge d<eg|
B<GB d>eg|B2A A2::\
g|\
a>Aa a2e|a>ge d<eg|
Geg e<dB|\
B<AG A2A|aa/g/e d<eg|B<GB d>eg|B2AA2:|
